packages/core/src/svgs/tokens/mono/IXS.svg

<svg width="24" height="24" viewBox="0 0 24 24" fill="none" xmlns="http://www.w3.org/2000/svg">
<path d="M8.71938 7.59004C10.8449 7.10438 13.5531 7.13295 15.7471 7.70431C15.9986 7.76145 16.2328 7.83574 16.4613 7.91001C17.307 8.1957 17.9756 8.53851 18.484 9.31557L18.4268 9.20129L18.3355 9.0356C17.067 7.01868 11.8618 6.57873 9.77073 6.67587C11.5933 6.24162 13.7703 6.19592 15.1301 6.61301C14.7987 6.42445 13.7303 5.91595 12.9132 5.37886C12.1533 4.87607 11.7476 4.23042 12.7704 3.48193C14.5987 2.15065 11.5305 2.32778 10.3707 2.46489C11.7933 2.12208 12.8275 2.07638 13.6846 2.19636C11.6962 1.73927 9.68501 2.10493 8.21086 3.03627C6.93673 3.84189 5.96541 5.18459 5.81113 6.22448C5.76543 6.51016 6.45678 6.23019 6.41106 6.51016C6.3425 6.88727 5.81685 8.00714 6.06253 7.86429C6.80627 7.48192 7.63173 7.28585 8.46798 7.29293C8.28515 7.34435 8.10802 7.39579 7.94232 7.45863C6.8853 7.83002 5.99968 8.28711 5.39404 9.23558C6.25108 8.14426 7.41667 7.88144 8.71938 7.59004Z" fill="white"/>
<path d="M17.3245 8.93276C14.6962 7.01869 8.41115 7.14438 6.14855 9.41843C8.24547 7.61863 14.8618 7.47577 17.3245 8.93276ZM6.43995 17.9832C6.66278 18.3032 6.90847 18.6346 6.95418 18.6916C6.38281 18.2574 5.80574 17.4918 5.40578 16.9033C5.64004 17.4005 5.90286 17.8517 6.26282 18.4059C5.87413 18.0949 5.52832 17.7336 5.23438 17.3318C5.45148 18.3604 7.94835 21.36 9.33105 21.697C8.99966 21.1371 9.31392 20.4115 9.99955 20.5029C10.7709 20.6057 10.7195 21.6456 10.1023 21.8628C10.571 21.937 11.0794 21.9828 11.6051 21.9999C11.4235 21.9697 11.2441 21.9277 11.068 21.8742C10.6167 21.7313 11.1309 21.8513 11.0109 21.28C10.788 20.5829 11.1422 20.8343 12.0508 20.6972C12.3936 20.6457 12.8107 20.5544 13.1935 20.4629C9.63959 20.5772 8.66255 20.4744 6.43995 17.9832ZM9.1825 21.4913C8.85111 21.1028 9.15393 20.4629 9.70239 20.4801C9.24536 20.5429 9.01109 21.0629 9.18821 21.4913H9.1825ZM10.2395 21.8456C10.7595 21.6743 10.7823 20.8629 10.411 20.6001C10.9023 20.8171 10.868 21.8056 10.2395 21.8456Z" fill="white"/>
<path d="M10.4624 21.2172C10.4624 20.8857 10.1996 20.623 9.87966 20.623C9.55969 20.623 9.29687 20.8857 9.29687 21.2172C9.29687 21.5429 9.55969 21.8056 9.87966 21.8056C10.1996 21.8056 10.4624 21.5429 10.4624 21.2172ZM9.53116 21.5714C9.43731 21.4762 9.38464 21.348 9.38464 21.2144C9.38464 21.0807 9.43731 20.9524 9.53116 20.8572C9.57676 20.8112 9.63115 20.7748 9.69088 20.7499C9.75074 20.7251 9.81486 20.7122 9.87966 20.7122C9.94445 20.7122 10.0086 20.7251 10.0684 20.7499C10.1282 20.7748 10.1826 20.8112 10.2282 20.8572C10.4224 21.0572 10.4224 21.3714 10.2282 21.5714C10.1826 21.6174 10.1282 21.6538 10.0684 21.6787C10.0086 21.7037 9.94445 21.7164 9.87966 21.7164C9.81486 21.7164 9.75074 21.7037 9.69088 21.6787C9.63115 21.6538 9.57676 21.6174 9.53116 21.5714ZM12.3422 19.5259C10.891 19.4574 9.42824 19.0459 8.75406 18.5547C9.39398 18.6975 10.0739 18.7832 10.771 18.8004C8.73121 18.6004 7.34279 17.7948 6.42861 16.5777C6.57145 16.8119 6.73143 17.0519 6.91999 17.2976C6.21376 16.7251 5.71576 15.936 5.503 15.0521C5.41158 15.2464 5.48587 15.4863 5.463 15.6863C5.45158 15.795 5.38301 15.9263 5.38301 16.0292C5.37158 16.4349 5.85725 17.0006 6.25721 17.4119L6.45718 17.6176L6.63431 17.7948C7.78846 18.9374 9.04547 20.2687 10.731 20.0402C10.2291 19.8943 9.75154 19.6747 9.314 19.3888C10.1254 19.5374 11.9594 19.5602 12.3422 19.5259Z" fill="white"/>
<path d="M8.45709 17.7375C9.4513 18.2117 11.0968 18.4574 11.7996 18.4174C10.6765 18.326 9.57608 18.0499 8.54278 17.6004C7.74522 17.2221 7.0744 16.6208 6.61157 15.8692C7.12986 16.5027 7.76882 17.0272 8.49136 17.4118C9.52209 17.9375 10.6598 18.219 11.8168 18.2346C17.199 18.2917 19.8501 14.0751 18.4846 9.30987C19.633 14.3093 16.8162 17.9775 11.8224 17.8804C6.77727 17.7947 4.7375 13.9664 5.39457 9.2356C4.84606 11.4525 5.08604 14.1264 6.43446 16.0062C6.95128 16.7475 7.64967 17.3435 8.46279 17.7375H8.45709ZM15.0049 19.7887C15.3814 19.5738 15.721 19.3 16.0106 18.9774C16.0106 18.9774 15.5534 19.4002 14.9478 19.6802C14.6335 19.823 14.2678 19.9087 13.9479 19.9258C13.9479 19.9258 14.5821 19.9658 15.0049 19.7887ZM9.96551 20.8114C9.87912 20.7994 9.79112 20.8118 9.71127 20.8471C9.63154 20.8825 9.56328 20.9394 9.51409 21.0114C10.057 20.6229 10.2797 21.2 10.2797 21.2C10.2797 21.2 10.2683 20.8571 9.96551 20.8114ZM14.2336 20.7029C13.7422 21.0286 13.9365 21.9028 14.5478 21.9313C14.0279 21.8 13.8621 21.0629 14.2336 20.7029Z" fill="white"/>
<path d="M14.3759 21.2398C14.3759 21.2398 14.593 20.52 15.2272 21.0228C14.9701 20.6114 14.3987 20.7371 14.3702 21.2398H14.3759ZM15.1414 20.5143C15.4729 20.6228 15.6443 21.137 15.4901 21.4455C15.7528 21.1428 15.5643 20.5371 15.1414 20.5086V20.5143ZM15.6329 21.497C16.467 21.4227 17.8269 19.2402 17.9526 18.9945C17.5584 19.6344 16.3185 21.1313 15.6329 21.497ZM17.1699 17.046C16.3245 17.8789 15.2608 18.4552 14.1016 18.7088C15.2158 18.6116 16.6157 17.9774 17.1699 17.046Z" fill="white"/>
<path d="M17.8959 17.7259L17.9302 17.6916C17.513 18.2345 16.816 19.1029 16.1932 19.7143C15.9761 19.9199 15.4562 20.3428 14.3477 20.457C14.7305 20.4285 15.4962 20.2743 15.6618 20.7256C15.7418 20.9313 15.719 21.2055 15.719 21.2055C15.8332 20.9485 15.8104 20.8055 15.7762 20.6456C15.7018 20.2685 15.8104 20.3028 16.1361 19.9486C16.8034 19.2359 17.411 18.4695 17.953 17.6574L18.6672 16.7775C18.6672 16.7775 18.8672 17.2746 18.7986 17.5202C18.7301 17.7716 17.9702 18.9657 17.9702 18.9657C17.9702 18.9657 18.9529 17.7088 18.9586 17.3317C18.9586 16.9604 18.7814 16.389 18.7814 16.389L17.8959 17.7259ZM17.913 17.1774C17.913 17.1774 18.7072 16.2061 18.7129 16.0518C18.7186 15.9033 18.6272 15.7433 18.5415 15.5548L18.5129 15.4461C18.3815 15.0234 18.4444 14.8291 18.4444 14.8291C18.2787 15.0119 18.4272 15.6404 18.5415 15.829C18.5759 15.9148 18.5986 15.9947 18.5759 16.0575C18.5072 16.2518 17.913 17.1774 17.913 17.1774ZM19.3471 11.898C19.4055 11.2458 19.3055 10.5892 19.0558 9.98394C19.1701 10.3496 19.2843 11.6866 19.1701 12.0637C19.9357 11.9895 19.89 11.4638 19.89 10.9096C19.8557 11.5838 19.6443 11.7895 19.3471 11.898ZM19.7128 9.96115C19.7421 9.93182 19.7655 9.89716 19.7815 9.85889C19.7973 9.82063 19.8054 9.7797 19.8054 9.73824C19.8054 9.69678 19.7973 9.65585 19.7815 9.61759C19.7655 9.57934 19.7421 9.54462 19.7128 9.51541C19.684 9.48535 19.6495 9.46142 19.6111 9.44506C19.5728 9.42871 19.5316 9.42029 19.49 9.42029C19.4483 9.42029 19.4071 9.42871 19.3688 9.44506C19.3306 9.46142 19.2959 9.48535 19.2671 9.51541C19.2378 9.54462 19.2144 9.57934 19.1986 9.61759C19.1827 9.65585 19.1745 9.69678 19.1745 9.73824C19.1745 9.7797 19.1827 9.82063 19.1986 9.85889C19.2144 9.89716 19.2378 9.93182 19.2671 9.96115C19.2959 9.99021 19.33 10.0134 19.3679 10.0293C19.4056 10.0451 19.4462 10.0533 19.4871 10.0533C19.528 10.0533 19.5687 10.0451 19.6064 10.0293C19.6441 10.0134 19.6784 9.99021 19.7071 9.96115H19.7128ZM19.3358 9.73824C19.3358 9.69251 19.3528 9.65252 19.3814 9.62399C19.4103 9.59536 19.4494 9.57931 19.49 9.57931C19.5307 9.57931 19.5696 9.59536 19.5985 9.62399C19.6271 9.65252 19.6443 9.69251 19.6443 9.73824C19.6443 9.78397 19.6271 9.82396 19.5985 9.85249C19.5696 9.88116 19.5307 9.89715 19.49 9.89715C19.4494 9.89715 19.4103 9.88116 19.3814 9.85249C19.3667 9.83743 19.355 9.81956 19.3471 9.79997C19.3392 9.78037 19.3354 9.75944 19.3358 9.73824Z" fill="white"/>
<path d="M19.873 8.68123C19.7588 8.28128 19.416 8.00131 18.9931 8.18414C19.2903 8.14986 19.6216 8.40126 19.736 8.73265C19.9302 9.28117 19.9473 10.0754 19.9588 10.3554C20.035 9.79691 20.006 9.22902 19.873 8.68123ZM4.98901 8.02988C4.31481 7.98988 4.2291 8.3327 4.10911 8.98405C4.00055 9.57828 3.85199 11.5095 4.33766 11.9323C4.52049 12.1037 4.72047 12.1037 4.9433 12.098C4.70332 11.8637 4.63477 11.4523 4.54334 11.1266L4.57763 11.5838C4.38336 11.281 4.27481 10.4296 4.53192 10.1325C4.66333 9.97249 4.80046 9.96116 4.80618 9.69825C4.80618 9.464 4.58906 9.23546 4.4005 9.30402C4.34336 9.32688 4.32051 9.17832 4.34336 8.97263C4.45764 8.17843 4.71476 8.13272 4.98901 8.02988ZM4.45192 9.3783C4.53764 9.3783 4.61763 9.41258 4.67477 9.46972C4.705 9.49901 4.72904 9.53408 4.74547 9.57285C4.76188 9.61163 4.77034 9.65332 4.77034 9.69545C4.77034 9.73745 4.76188 9.77918 4.74547 9.81797C4.72904 9.85677 4.705 9.89183 4.67477 9.92116C4.64605 9.95036 4.61181 9.97342 4.57404 9.98929C4.53628 10.0052 4.49573 10.0133 4.45479 10.0133C4.41384 10.0133 4.37329 10.0052 4.33552 9.98929C4.29776 9.97342 4.26352 9.95036 4.23482 9.92116C4.20457 9.89183 4.18053 9.85677 4.16412 9.81797C4.14769 9.77918 4.13923 9.73745 4.13923 9.69545C4.13923 9.65332 4.14769 9.61163 4.16412 9.57285C4.18053 9.53408 4.20457 9.49901 4.23482 9.46972C4.29194 9.41258 4.36623 9.3783 4.45192 9.3783Z" fill="white"/>
<path d="M4.45772 9.85258C4.47798 9.85191 4.4979 9.84711 4.51634 9.83871C4.53478 9.83031 4.55136 9.81831 4.56516 9.80338C4.57896 9.78858 4.58969 9.77112 4.59674 9.75206C4.6038 9.73312 4.60704 9.71286 4.60628 9.6926C4.60722 9.6618 4.59889 9.6314 4.58237 9.6053C4.56585 9.57922 4.54188 9.55872 4.51359 9.54641C4.48529 9.53411 4.45395 9.53057 4.42362 9.53627C4.39329 9.54196 4.36536 9.55662 4.34344 9.57835C4.3206 9.60073 4.30498 9.6294 4.29862 9.66073C4.29224 9.69206 4.29542 9.72459 4.30771 9.75419C4.32001 9.78365 4.34088 9.80885 4.36762 9.82645C4.39435 9.84391 4.42574 9.85311 4.45772 9.85258ZM5.21192 9.04699C5.30905 8.20136 5.71473 7.08721 5.96041 6.68725C5.32048 7.09291 5.16049 8.56132 5.21192 9.04699ZM18.2562 6.87008C18.0563 5.116 16.2965 3.06479 14.3595 2.58484C15.9878 3.14478 17.6391 5.17312 18.2562 6.87008ZM14.8052 20.6286C14.4852 20.6286 14.2223 20.8856 14.2223 21.217C14.2223 21.5427 14.4852 21.8055 14.8052 21.8055C15.1251 21.8055 15.3879 21.5427 15.3879 21.217C15.3879 20.8856 15.1251 20.6228 14.8052 20.6228V20.6286ZM15.1537 21.5713C15.1081 21.6173 15.0537 21.6537 14.9939 21.6786C14.9341 21.7035 14.8699 21.7163 14.8052 21.7163C14.7404 21.7163 14.6762 21.7035 14.6164 21.6786C14.5565 21.6537 14.5023 21.6173 14.4567 21.5713C14.3628 21.4761 14.3101 21.3478 14.3101 21.2143C14.3101 21.0805 14.3628 20.9523 14.4567 20.8571C14.5023 20.8111 14.5565 20.7747 14.6164 20.7498C14.6762 20.725 14.7404 20.712 14.8052 20.712C14.8699 20.712 14.9341 20.725 14.9939 20.7498C15.0537 20.7747 15.1081 20.8111 15.1537 20.8571C15.3479 21.0571 15.3479 21.3713 15.1537 21.5713ZM13.5196 2.80196C13.491 3.09907 13.2796 3.33905 13.0681 3.5276C12.1483 4.35608 12.3997 4.79603 13.411 5.40739L14.5423 6.06445C14.4167 5.93304 13.8395 5.53308 13.5081 5.27598C12.7082 4.6589 12.5082 4.45892 13.2111 3.67044C13.4053 3.45332 13.6681 3.09907 13.5196 2.80196Z" fill="white"/>
<path d="M16.4384 4.38466L16.4327 4.37896L16.427 4.36753C16.1639 4.05995 15.8557 3.7941 15.5128 3.57904C15.5013 3.57332 15.4271 3.52762 15.4157 3.53333C15.4157 3.54475 15.49 3.60189 15.4957 3.60761C15.81 3.85901 16.0727 4.14469 16.3356 4.44752L16.3412 4.45323L16.347 4.46465L16.3642 4.4818C16.6544 4.79748 16.9217 5.13355 17.1641 5.48741C17.1755 5.48169 17.1355 5.40741 17.1355 5.39599C16.9492 5.0294 16.7147 4.68931 16.4384 4.38466ZM8.92498 16.8005C11.3705 17.9146 14.1244 17.1547 14.7986 16.7661C13.233 17.1547 11.7361 17.1775 10.5076 16.9433L10.4963 16.9261V16.9433C9.97061 16.8405 9.49066 16.6976 9.07924 16.5091C6.77092 15.4692 5.7539 12.8409 5.71391 10.3955C5.54821 12.9495 6.47953 15.6862 8.92498 16.7948V16.8005Z" fill="white"/>
<path d="M7.54307 14.5607C7.19455 14.2521 6.82315 13.4351 6.57175 12.5609C6.37076 11.8557 6.2406 11.1321 6.18322 10.4012C6.05753 11.4124 6.53748 13.9036 7.54879 14.5607H7.54307ZM17.9248 9.75549C18.2905 10.9267 18.1533 13.1209 17.6276 14.2235C18.4162 13.1836 18.5647 10.8982 17.9248 9.75549ZM15.0109 11.0182C15.0166 10.9954 15.0109 10.9724 14.9822 10.9611C14.9651 10.9611 14.9422 10.9782 14.9366 11.0067C14.9366 11.0296 14.9479 11.0524 14.9651 11.0581C14.9879 11.0581 15.0109 11.0467 15.0166 11.0182H15.0109Z" fill="white"/>
<path d="M8.15413 15.2578C7.89701 15.0351 7.65132 14.7779 7.42849 14.4809L7.22852 10.5098C7.46277 10.2013 7.71989 9.9327 7.98843 9.69846L8.15984 15.2578H8.15413ZM13.045 8.70429C12.6711 9.3845 12.3223 10.0782 11.9994 10.7841L11.7137 11.4125C11.5724 11.7161 11.4257 12.017 11.2738 12.3154C11.3688 12.4694 11.4492 12.6319 11.5137 12.8011L11.7309 13.2923L12.0622 14.0294C12.4108 14.8008 12.7536 15.5378 13.0908 16.1949C12.6279 16.3207 12.1594 16.4006 11.6909 16.4234C11.3252 15.5663 10.9595 14.6636 10.5938 13.7837C10.2659 14.5642 9.91724 15.3358 9.54822 16.0977C9.16657 15.9507 8.80551 15.7547 8.4741 15.515C8.74835 15.1151 9.03974 14.5437 9.34251 13.8865L9.61688 13.2866L9.80539 12.8696C9.87525 12.7169 9.94951 12.5664 10.0282 12.4182C9.99963 12.3611 9.9711 12.3039 9.93111 12.2467C9.88431 12.1587 9.84045 12.0691 9.79966 11.9782L9.59968 11.5612L9.29686 10.9441C8.9826 10.3156 8.66835 9.78418 8.37696 9.39565C8.7712 9.10997 9.19402 8.89856 9.63394 8.75001C9.97684 9.40708 10.3196 10.1669 10.6681 10.9669C11.011 10.1327 11.3538 9.28709 11.708 8.48718C12.1537 8.51003 12.6051 8.58431 13.045 8.70429ZM16.2447 12.0982C16.5704 12.1667 16.7931 12.2982 16.9303 12.4296C17.0731 12.5611 17.1303 12.6753 17.1074 12.8524C17.1016 12.9496 17.0731 13.0466 17.0331 13.161C16.9874 13.2753 16.9189 13.401 16.8389 13.5495C16.7531 13.698 16.6446 13.8637 16.5074 14.0465C16.3608 14.2457 16.1943 14.4295 16.0104 14.5951C15.21 15.297 14.2721 15.8244 13.2565 16.1435C13.4678 15.4464 13.685 14.7722 13.8964 14.1437C14.6556 14.0003 15.3984 13.78 16.1132 13.4866C16.2104 13.4466 16.2847 13.3895 16.3247 13.3323C16.3723 13.2655 16.3981 13.1858 16.3989 13.1038C16.3989 13.0124 16.3817 12.9496 16.3417 12.921C16.3017 12.8866 16.2275 12.8753 16.1362 12.8924C15.6505 12.9724 15.1248 13.0353 14.5706 13.0866C14.3706 13.1038 14.1992 13.0753 14.0506 12.9896C13.8951 12.894 13.7685 12.7576 13.685 12.5953C13.5878 12.4239 13.5135 12.1954 13.4678 11.9439C13.419 11.6609 13.3961 11.374 13.3993 11.0868C13.3993 10.7441 13.4335 10.4356 13.4907 10.1727C13.5478 9.90417 13.6278 9.687 13.742 9.53277C13.8564 9.37851 13.9992 9.28709 14.1764 9.25852C14.3477 9.23567 14.5591 9.2928 14.7934 9.42421C15.6905 9.92697 16.5132 10.6241 17.1816 11.4583C17.0103 11.4468 16.8389 11.544 16.6561 11.7382C16.031 11.4203 15.3741 11.1694 14.6963 10.9898C14.5819 10.9613 14.5019 10.9669 14.4449 11.024C14.3877 11.0755 14.3591 11.184 14.3591 11.3555C14.3591 11.5268 14.3819 11.6412 14.4334 11.7212C14.4906 11.7954 14.5706 11.8354 14.6791 11.8525C15.2333 11.9154 15.7647 12.0011 16.2447 12.0982Z" fill="white"/>
</svg>

<svg xmlns="http://www.w3.org/2000/svg" width="24" height="24" fill="none" viewBox="0 0 24 24">
    <path fill="#fff" d="M8.72 7.59c2.125-.486 4.833-.457 7.027.114.252.057.486.132.714.206.846.286 1.515.629 2.023 1.406l-.057-.115-.091-.165c-1.269-2.017-6.474-2.457-8.565-2.36 1.822-.434 4-.48 5.36-.063-.332-.189-1.4-.697-2.218-1.234-.76-.503-1.165-1.149-.143-1.897 1.829-1.331-1.24-1.154-2.4-1.017 1.423-.343 2.458-.389 3.315-.269-1.989-.457-4-.091-5.474.84-1.274.806-2.246 2.149-2.4 3.188-.046.286.646.006.6.286-.068.377-.594 1.497-.348 1.354a5.2 5.2 0 0 1 2.405-.571c-.183.051-.36.103-.526.166C6.885 7.83 6 8.287 5.394 9.236 6.251 8.144 7.417 7.88 8.719 7.59"/>
    <path fill="#fff" d="M17.325 8.933c-2.629-1.914-8.914-1.789-11.176.485 2.096-1.8 8.713-1.942 11.176-.485M6.44 17.983c.223.32.468.652.514.709-.571-.435-1.148-1.2-1.548-1.789.234.498.497.949.857 1.503a5.6 5.6 0 0 1-1.029-1.074c.217 1.028 2.714 4.028 4.097 4.365-.331-.56-.017-1.285.669-1.194.77.103.72 1.143.102 1.36.469.074.977.12 1.503.137a4 4 0 0 1-.537-.126c-.451-.143.063-.023-.057-.594-.223-.697.131-.446 1.04-.583.343-.051.76-.143 1.143-.234-3.554.114-4.531.011-6.754-2.48m2.742 3.508c-.33-.388-.028-1.028.52-1.01-.457.062-.69.582-.514 1.01zm1.057.355c.52-.172.543-.983.172-1.246.491.217.457 1.206-.171 1.246"/>
    <path fill="#fff" d="M10.462 21.217a.59.59 0 0 0-.582-.594.59.59 0 0 0-.583.594c0 .326.263.589.583.589s.582-.263.582-.589m-.93.354a.51.51 0 0 1 .159-.821.49.49 0 0 1 .537.107.51.51 0 0 1 0 .714.49.49 0 0 1-.697 0m2.81-2.045c-1.451-.069-2.914-.48-3.588-.971.64.143 1.32.228 2.017.245-2.04-.2-3.428-1.005-4.342-2.222.142.234.302.474.491.72a4.14 4.14 0 0 1-1.417-2.246c-.091.194-.017.434-.04.634-.011.109-.08.24-.08.343-.011.406.474.972.874 1.383l.2.206.177.177c1.154 1.142 2.411 2.474 4.097 2.245a5.3 5.3 0 0 1-1.417-.651c.811.148 2.645.171 3.028.137"/>
    <path fill="#fff" d="M8.457 17.738c.994.474 2.64.72 3.343.68a10.3 10.3 0 0 1-3.257-.818 4.57 4.57 0 0 1-1.931-1.73 6.2 6.2 0 0 0 1.88 1.542 7.54 7.54 0 0 0 3.325.823c5.382.057 8.033-4.16 6.668-8.925 1.148 5-1.669 8.667-6.663 8.57-5.045-.085-7.084-3.914-6.427-8.644-.549 2.217-.309 4.89 1.04 6.77a5.3 5.3 0 0 0 2.028 1.732zm6.548 2.05a4 4 0 0 0 1.006-.81s-.458.422-1.063.702c-.315.143-.68.229-1 .246 0 0 .634.04 1.057-.137m-5.04 1.023a.47.47 0 0 0-.45.2c.542-.388.765.189.765.189s-.012-.343-.314-.389m4.269-.108c-.492.326-.297 1.2.314 1.228-.52-.131-.686-.868-.314-1.228"/>
    <path fill="#fff" d="M14.376 21.24s.217-.72.851-.217c-.257-.412-.828-.286-.857.217zm.765-.726c.332.109.503.623.35.931.262-.302.073-.908-.35-.936zm.492.983c.834-.074 2.194-2.257 2.32-2.503-.395.64-1.634 2.137-2.32 2.503m1.537-4.451a6.3 6.3 0 0 1-3.068 1.663c1.114-.097 2.514-.732 3.068-1.663"/>
    <path fill="#fff" d="m17.896 17.726.034-.034c-.417.543-1.114 1.41-1.737 2.022-.217.206-.737.629-1.845.743.382-.029 1.148-.183 1.314.269.08.205.057.48.057.48a.78.78 0 0 0 .057-.56c-.074-.378.034-.343.36-.697a18 18 0 0 0 1.817-2.292l.714-.88s.2.498.132.743c-.069.252-.829 1.446-.829 1.446s.983-1.257.989-1.634c0-.372-.178-.943-.178-.943zm.017-.549s.794-.97.8-1.125c.006-.149-.086-.309-.172-.497l-.028-.109c-.132-.423-.069-.617-.069-.617-.165.183-.017.811.098 1 .034.086.057.166.034.229-.069.194-.663 1.12-.663 1.12m1.434-5.279a4.1 4.1 0 0 0-.291-1.914c.114.366.228 1.703.114 2.08.766-.075.72-.6.72-1.154-.034.674-.246.88-.543.988m.366-1.937a.32.32 0 0 0 .092-.223.32.32 0 0 0-.194-.293.31.31 0 0 0-.344.07.314.314 0 0 0 0 .446.31.31 0 0 0 .34.068.3.3 0 0 0 .1-.068zm-.377-.223a.154.154 0 1 1 .309 0 .154.154 0 1 1-.309 0"/>
    <path fill="#fff" d="M19.873 8.681c-.114-.4-.457-.68-.88-.497.297-.034.629.217.743.549.194.548.211 1.342.223 1.622a4.5 4.5 0 0 0-.086-1.674M4.989 8.03c-.674-.04-.76.303-.88.954-.108.594-.257 2.525.229 2.948.182.172.382.172.605.166-.24-.234-.308-.646-.4-.971l.035.457c-.195-.303-.303-1.154-.046-1.451.131-.16.268-.172.274-.435 0-.234-.217-.463-.405-.394-.058.023-.08-.126-.058-.331.115-.795.372-.84.646-.943m-.537 1.348a.315.315 0 0 1 .293.195.315.315 0 0 1-.07.348.31.31 0 0 1-.44 0 .314.314 0 0 1 0-.451.3.3 0 0 1 .217-.092"/>
    <path fill="#fff" d="M4.458 9.853a.154.154 0 0 0 .148-.16.154.154 0 0 0-.263-.115.16.16 0 0 0 .115.275m.754-.806c.097-.846.503-1.96.748-2.36-.64.406-.8 1.874-.748 2.36M18.256 6.87c-.2-1.754-1.96-3.805-3.896-4.285 1.628.56 3.28 2.588 3.896 4.285m-3.45 13.759a.583.583 0 0 0-.584.588c0 .326.263.588.583.588s.583-.262.583-.588a.59.59 0 0 0-.583-.594zm.348.942a.49.49 0 0 1-.697 0 .51.51 0 0 1 .16-.821.49.49 0 0 1 .537.107.51.51 0 0 1 0 .714M13.52 2.802c-.029.297-.24.537-.452.726-.92.828-.668 1.268.343 1.88l1.131.656c-.125-.131-.703-.53-1.034-.788-.8-.617-1-.817-.297-1.606.194-.217.457-.57.309-.868"/>
    <path fill="#fff" d="m16.438 4.385-.005-.006-.006-.011a4 4 0 0 0-.914-.789c-.012-.006-.086-.051-.097-.046 0 .012.074.069.08.075.314.251.577.537.84.84l.005.005.006.012.017.017q.436.474.8 1.005c.011-.005-.029-.08-.029-.091a4.6 4.6 0 0 0-.697-1.011M8.925 16.8c2.445 1.114 5.2.354 5.874-.035-1.566.389-3.063.412-4.291.177l-.012-.017v.017a6.4 6.4 0 0 1-1.417-.434c-2.308-1.04-3.325-3.668-3.365-6.113-.166 2.553.766 5.29 3.211 6.399z"/>
    <path fill="#fff" d="M7.543 14.56c-.348-.308-.72-1.125-.971-2a11 11 0 0 1-.389-2.159c-.125 1.011.354 3.503 1.366 4.16zm10.382-4.805c.366 1.172.228 3.366-.297 4.468.788-1.04.937-3.325.297-4.468m-2.914 1.263c.006-.023 0-.046-.029-.057-.017 0-.04.017-.045.046 0 .023.01.045.028.051.023 0 .046-.011.052-.04z"/>
    <path fill="#fff" d="M8.154 15.258a5 5 0 0 1-.726-.777l-.2-3.971c.235-.309.492-.577.76-.812l.172 5.56zm4.891-6.554q-.561 1.02-1.046 2.08l-.285.628q-.212.456-.44.903.143.232.24.486l.217.491.331.737a49 49 0 0 0 1.029 2.166 6.6 6.6 0 0 1-1.4.228c-.366-.857-.732-1.76-1.097-2.64q-.492 1.172-1.046 2.315a4.7 4.7 0 0 1-1.074-.583c.274-.4.566-.971.869-1.629l.274-.6.188-.416q.105-.23.223-.452a1 1 0 0 0-.097-.171 5 5 0 0 1-.131-.269l-.2-.417-.303-.617c-.314-.628-.629-1.16-.92-1.548a4.7 4.7 0 0 1 1.257-.646 36 36 0 0 1 1.034 2.217c.343-.834.686-1.68 1.04-2.48.446.023.897.097 1.337.217m3.2 3.394c.325.069.548.2.685.332.143.131.2.245.177.422a1.2 1.2 0 0 1-.074.309c-.046.114-.114.24-.194.389a5 5 0 0 1-.332.496q-.22.3-.497.55a7.7 7.7 0 0 1-2.754 1.547c.212-.697.429-1.37.64-2a11.4 11.4 0 0 0 2.217-.656.5.5 0 0 0 .212-.155.4.4 0 0 0 .074-.228q.002-.139-.057-.183c-.04-.034-.114-.046-.206-.029a23 23 0 0 1-1.565.195.86.86 0 0 1-.52-.097 1 1 0 0 1-.366-.395 2.1 2.1 0 0 1-.217-.651 4.7 4.7 0 0 1-.069-.857c0-.343.035-.651.092-.914.057-.269.137-.486.251-.64a.66.66 0 0 1 .434-.274c.172-.023.383.034.617.165.898.503 1.72 1.2 2.389 2.034-.172-.011-.343.086-.526.28a10 10 0 0 0-1.96-.748c-.114-.029-.194-.023-.251.034q-.086.076-.086.332c0 .17.023.285.074.365a.36.36 0 0 0 .246.131c.554.063 1.086.15 1.566.246"/>
</svg>
